MonoIcons/scalable/status/security-medium-symbolic.svg

<?xml version="1.0" encoding="UTF-8"?>
<svg height="16px" viewBox="0 0 16 16" width="16px" xmlns="http://www.w3.org/2000/svg">
    <path d="m 2 0 c -0.550781 0 -1 0.449219 -1 1 v 8 c 0 2.5 1.816406 4.246094 3.445312 5.332031 c 1.628907 1.085938 3.238282 1.617188 3.238282 1.617188 c 0.207031 0.070312 0.425781 0.070312 0.632812 0 c 0 0 1.609375 -0.53125 3.238282 -1.617188 c 1.628906 -1.085937 3.445312 -2.832031 3.445312 -5.332031 v -8 c 0 -0.550781 -0.449219 -1 -1 -1 z m 1 2 h 10 v 7 c 0 1.5 -1.183594 2.753906 -2.554688 3.667969 c -1.214843 0.808593 -2.179687 1.128906 -2.445312 1.226562 c -0.265625 -0.097656 -1.230469 -0.417969 -2.445312 -1.226562 c -1.371094 -0.914063 -2.554688 -2.167969 -2.554688 -3.667969 z m 1 1 v 6 c 0 1 0.867188 2.007812 2.109375 2.835938 c 0.933594 0.621093 1.472656 0.785156 1.890625 0.949218 v -9.785156 z m 0 0" fill="#2e3436"/>
</svg>

<svg width="16" height="16" viewBox="0 0 16 16" fill="none" xmlns="http://www.w3.org/2000/svg">
<g clip-path="url(#clip0_231_943)">
<path d="M2 0C1.44922 0 1 0.449219 1 1V9C1 11.5 2.81641 13.2461 4.44531 14.332C6.07422 15.418 7.68359 15.9492 7.68359 15.9492C7.89063 16.0195 8.10938 16.0195 8.31641 15.9492C8.31641 15.9492 9.92578 15.418 11.5547 14.332C13.1836 13.2461 15 11.5 15 9V1C15 0.449219 14.5508 0 14 0H2ZM3 2H13V9C13 10.5 11.8164 11.7539 10.4453 12.668C9.23047 13.4766 8.26562 13.7969 8 13.8945C7.73438 13.7969 6.76953 13.4766 5.55469 12.668C4.18359 11.7539 3 10.5 3 9V2ZM4 3V9C4 10 4.86719 11.0078 6.10938 11.8359C7.04297 12.457 7.58203 12.6211 8 12.7852V3H4Z" fill="#2E3436"/>
</g>
<defs>
<clipPath id="clip0_231_943">
<rect width="16" height="16" fill="white"/>
</clipPath>
</defs>
</svg>
